src/status/24/whatsie-tray-attention.svg

<svg viewBox="0 0 24 24" xmlns="http://www.w3.org/2000/svg">
 <path d="m12 3a9 9 0 0 0-9 9 9 9 0 0 0 1.572 5.07l-1.572 3.93 3.924-1.568a9 9 0 0 0 5.076 1.568 9 9 0 0 0 9-9 9 9 0 0 0-9-9m-3.662 4.217c0.172 0 0.345-1e-3 0.496 8e-3 0.186 9e-3 0.389 0.016 0.582 0.447 0.23 0.512 0.734 1.793 0.799 1.922s0.107 0.28 0.021 0.456c-0.086 0.17-0.129 0.277-0.259 0.429-0.129 0.151-0.271 0.337-0.387 0.453-0.13 0.128-0.266 0.268-0.115 0.527s0.669 1.107 1.439 1.793c0.989 0.878 1.824 1.154 2.082 1.283 0.259 0.129 0.41 0.109 0.561-0.064s0.648-0.757 0.82-1.016c0.173-0.259 0.343-0.215 0.58-0.129s1.511 0.714 1.77 0.842c0.259 0.129 0.433 0.195 0.496 0.303 0.065 0.108 0.065 0.629-0.153 1.228-0.214 0.604-1.271 1.188-1.746 1.231s-0.918 0.22-3.105-0.647c-2.631-1.037-4.291-3.733-4.42-3.906s-1.059-1.404-1.059-2.678c0-1.273 0.669-1.899 0.906-2.158s0.52-0.324 0.692-0.324" fill="#88c0d0"/>
</svg>

<svg xmlns="http://www.w3.org/2000/svg" viewBox="0 0 24 24">
 <path d="m 12 3 a 9 9 0 0 0 -9 9 9 9 0 0 0 1.572 5.07 L 3 21 6.924 19.432 A 9 9 0 0 0 12 21 9 9 0 0 0 21 12 9 9 0 0 0 12 3 M 8.338 7.217 c 0.172 0 0.345 -0.001 0.496 0.008 0.186 0.009 0.389 0.016 0.582 0.447 0.23 0.512 0.734 1.793 0.799 1.922 0.065 0.129 0.107 0.28 0.021 0.456 -0.086 0.17 -0.129 0.277 -0.259 0.429 C 9.848 10.63 9.706 10.816 9.59 10.932 9.46 11.06 9.324 11.2 9.475 11.459 c 0.151 0.259 0.669 1.107 1.439 1.793 0.989 0.878 1.824 1.154 2.082 1.283 0.259 0.129 0.41 0.109 0.561 -0.064 0.151 -0.173 0.648 -0.757 0.82 -1.016 0.173 -0.259 0.343 -0.215 0.58 -0.129 0.237 0.086 1.511 0.714 1.77 0.842 0.259 0.129 0.433 0.195 0.496 0.303 0.065 0.108 0.065 0.629 -0.153 1.228 -0.214 0.604 -1.271 1.188 -1.746 1.231 -0.475 0.043 -0.918 0.22 -3.105 -0.647 C 9.588 15.246 7.928 12.55 7.799 12.377 7.67 12.204 6.74 10.973 6.74 9.699 6.74 8.426 7.409 7.8 7.646 7.541 7.883 7.282 8.166 7.217 8.338 7.217" style="fill:#88c0d0;opacity:1;fill-opacity:1;stroke:none;fill-rule:nonzero"/>
</svg>
